X: 94
T: Anlatılmaz Bin Dert ile
C: Erdoğan Yıldızel
O: Turkey
F: http://compmusic.upf.edu/node/140
N: hicaz--sarki--kapali_curcuna--anlatilmaz_bin--erdogan_yildizel
N: makam= hicaz
N: form= sarki
N: usul= kapali_curcuna = 10/8
M: 10/8
L: 1/16
K: C _7/8B ^f ^c 
Q: 1/4=180
%%MIDI tuningsystem comma53
e6a4g4=f3ed2  | d6d3^3/4cB2 ABA6  | e2^3/4f2 g2g2 =f2f2 e2d4^3/4c2  | 
w:  An la tıl  |  maz   |  bin  *  *  derd_ *  i  | 
d8-d2A4d6  | z4 e2e2 d2d2 ^3/4cdc6  | \
w:  le  SAZ  |  ge çi *  yor   | 
d4 e2^3/4f4g4a6  | z4 a2_1/4b2 g2g2 ^3/4f2f4ed  | 
w:   |  çi le *  li  *  öm  | 
d8-d2A4d6  | d2a2 g2=f2 e2d2 ^3/4c2B3AG2  | \
w:  rüm   SAZ  |   | 
A2B2 d2^3/4c2 B2B2 A2A6  | 
w:  SAZ  | 
e6a4g4=f3ed2  | d6d3^3/4cB2 ABA6  | e2^3/4f2 g2g2 =f2f2 e2d4^3/4c2  | 
w:  An la tıl  |  maz   |  bin  *  *  derd_ *  i  | 
d8-d2A4d6  | z4 e2e2 d2d2 ^3/4cdc6  | \
w:  le  SAZ  |  ge çi *  yor   | 
d4 e2^3/4f4g4a6  | z4 a2_1/4b2 g2g2 ^3/4f2f4ed  | 
w:   |  çi le *  li  *  öm  | 
d8-d2A4d6  | d2a2 g2=f2 e2d2 ^3/4c2B3AG2  | \
w:  rüm   SAZ  |   | 
d2a2 g2=f2 e2ed d^3/4cd6  | 
w:  SAZ  | 
d6a4g4^3/4f2 e2d2  | ^3/4f8-^3/4f2g4a6  | \
w:  Bir  ve fâ  |  sız   | 
z4 a2g2 =f2f2 e2d4e2  | =f6f2 e2d2 ^3/4cdc6  | 
w:  ke de *  rin  |  den   | 
z4 d2d2 ^3/4c2B2 ABA6  | A8-A2B^3/4c de=f6  | \
w:  e ri *  yor   |   | 
z4 =f2f2 e2d2 ^3/4c2dc B2BA  | 
w:  ga rip  *  gön  | 
A8-A2B2 ^3/4c2A6  | d2a2 g2=f2 e2d2 ^3/4c2B3AG2  | \
w:  lüm   SAZ  |   | 
d2a2 g2=f2 e2ed d^3/4cd6  | 
w:  SAZ  | 
d6a4g4^3/4f2 e2d2  | ^3/4f8-^3/4f2g4a6  | \
w:  Bir  ve fâ  |  sız   | 
z4 a2g2 =f2f2 e2d4e2  | =f6f2 e2d2 ^3/4cdc6  | 
w:  ke de *  rin  |  den   | 
z4 d2d2 ^3/4c2B2 ABA6  | A8-A2B^3/4c de=f6  | \
w:  e ri *  yor   |   | 
z4 =f2f2 e2d2 ^3/4c2dc B2BA  | 
w:  ga rip  *  gön  | 
A8-A2B2 ^3/4c2A6  | d2a2 g2=f2 e2d2 ^3/4c2B3AG2  | \
w:  lüm   SAZ  |   | 
d2a2 g2^3/4f2 ^3/4e2g2 fef6  | 
w:  SAZ  | 
z4 d2^3/4f4f8g2  | a6a4a4a6  | z4 a2_1/4b4b4g4a2  | \
w:  Şu  sim si  |  yah   |  ge ce ler   | 
ag^3/4f^3/4e f6d4f6  | 
w:  mi  *  *  *  *  SAZ  | 
z4 e2^3/4f2 g2g4g4f2  | a8-a2a2 g2=f3ed2  | \
w:  a cep  *  ben   |  mi   | 
e2^3/4f2 g2=f2 e2f2 e2d4^3/4c2  | 
w:  ök *  *  *  *  *  *  *  sü  | 
d8-d2A4d6  | d2a2 g2=f2 e2d2 ^3/4c2B3AG2  | \
w:  züm   SAZ  |   | 
d2a2 g2=f2 e2ed d^3/4cd6  | 
w:   | 
d6a4g4^3/4f2 e2d2  | ^3/4f8-^3/4f2g4a6  | \
w:  Bir  ve fâ  |  sız   | 
z4 a2g2 =f2f2 e2d4e2  | =f6f2 e2d2 ^3/4cdc6  | 
w:  ke de *  rin  |  den   | 
z4 d2d2 ^3/4c2B2 ABA6  | A8-A2B^3/4c de=f6  | \
w:  e ri *  yor   |   | 
z4 =f2f2 e2d2 ^3/4c2dc B2BA  | 
w:  ga rip  *  gön  | 
A8-A2B2 ^3/4c2A6  | |


